assets/post/images/constellation14.svg

<svg xmlns="http://www.w3.org/2000/svg" width="1195" height="1129" overflow="hidden"><defs><clipPath id="a"><path d="M3007 77h1195v1129H3007z"/></clipPath></defs><g clip-path="url(#a)" transform="translate(-3007 -77)"><path fill="none" stroke="#000" stroke-miterlimit="8" stroke-width="9.167" d="M3007.5 656.5h1189.38m-630.38 549.44V102.5"/><path fill="#d74514" fill-rule="evenodd" d="M3892 522c0-24.3 19.48-44 43.5-44s43.5 19.7 43.5 44-19.48 44-43.5 44-43.5-19.699-43.5-44"/><text fill="#d74514" font-family="Microsoft YaHei,Microsoft YaHei_MSFontService,sans-serif" font-size="73" font-weight="700" transform="translate(3862.3 435)">000</text><path fill-rule="evenodd" d="M4144.05 714.715h14.26l-.4 1.746c-.9.191-1.55.404-1.94.642q-.585.357-1.05 1.069-.465.713-.96 2.228c-.34 1.01-.75 2.656-1.25 4.937l-6.1 27.66c-.3 1.402-.51 2.513-.6 3.333-.1.82-.14 1.562-.14 2.228 0 1.069.26 1.823.8 2.263.53.44 1.43.707 2.69.802l-.39 1.747h-14.26l.39-1.747c.9-.143 1.58-.374 2.03-.695q.675-.481 1.14-1.337c.31-.57.6-1.265.86-2.085s.65-2.406 1.18-4.758l6.06-27.447q.78-3.564.78-5.739 0-1.675-.84-2.334c-.56-.44-1.44-.695-2.65-.767Z"/><text x="4134.71" y="757.288" fill-opacity="0" font-family="Arial,Arial_MSFontService,sans-serif" font-size="48.655">𝐼</text><path fill-rule="evenodd" d="M3639.32 119.552c-2.57 0-4.96.915-7.18 2.745q-3.33 2.745-5.85 7.842-2.505 5.097-3.9 11.192c-.93 4.063-1.39 7.652-1.39 10.765 0 7.342 2.67 11.014 8.02 11.014q4.95 0 9.09-4.616c2.75-3.077 4.98-7.337 6.66-12.779 1.69-5.441 2.53-10.527 2.53-15.256 0-3.54-.65-6.243-1.96-8.109-1.3-1.865-3.31-2.798-6.02-2.798m.39-3.137c4.59 0 8.12 1.331 10.61 3.993q3.72 3.992 3.72 11.548c0 3.327-.52 7.046-1.57 11.157-1.04 4.111-2.48 7.741-4.31 10.89q-2.745 4.722-6.36 7.61t-7.86 3.992c.54 1.735 1.06 3.166 1.53 4.295.48 1.129.93 2.044 1.37 2.745s.88 1.224 1.3 1.568q.645.517 1.29.695c.42.119.92.178 1.49.178.91 0 1.82-.261 2.75-.784s1.96-1.426 3.1-2.709l1.85 1.996q-2.85 3.102-5.31 4.385c-1.64.855-3.32 1.283-5.06 1.283q-2.955 0-4.83-1.319t-3.24-4.206c-.92-1.925-1.8-4.444-2.66-7.557q-6.45-.356-9.84-4.277c-2.25-2.614-3.38-6.297-3.38-11.05q0-5.346 1.8-12.083c1.2-4.492 2.93-8.454 5.2-11.888q3.405-5.151 8.13-7.806c3.15-1.77 6.58-2.656 10.28-2.656"/><text x="3614.3" y="171.402" fill-opacity="0" font-family="Arial,Arial_MSFontService,sans-serif" font-size="62.841">𝑄</text><path fill="#d74514" fill-rule="evenodd" d="M3201 522c0-24.3 19.48-44 43.5-44s43.5 19.7 43.5 44-19.48 44-43.5 44-43.5-19.699-43.5-44"/><text fill="#d74514" font-family="Microsoft YaHei,Microsoft YaHei_MSFontService,sans-serif" font-size="73" font-weight="700" transform="translate(3171.07 435)">010</text><path fill="#d74514" fill-rule="evenodd" d="M3892 818.5c0-24.024 19.48-43.5 43.5-43.5s43.5 19.476 43.5 43.5-19.48 43.5-43.5 43.5-43.5-19.475-43.5-43.5"/><text fill="#d74514" font-family="Microsoft YaHei,Microsoft YaHei_MSFontService,sans-serif" font-size="73" font-weight="700" transform="translate(3862.3 732)">100</text><path fill="#d74514" fill-rule="evenodd" d="M3201 818.5c0-24.024 19.48-43.5 43.5-43.5s43.5 19.476 43.5 43.5-19.48 43.5-43.5 43.5-43.5-19.475-43.5-43.5"/><text fill="#d74514" font-family="Microsoft YaHei,Microsoft YaHei_MSFontService,sans-serif" font-size="73" font-weight="700" transform="translate(3171.07 732)">110</text><path fill="#d74514" fill-rule="evenodd" d="M3683 293.5c0-24.024 19.48-43.5 43.5-43.5s43.5 19.476 43.5 43.5-19.48 43.5-43.5 43.5-43.5-19.476-43.5-43.5"/><text fill="#d74514" font-family="Microsoft YaHei,Microsoft YaHei_MSFontService,sans-serif" font-size="73" font-weight="700" transform="translate(3653.3 207)">001</text><path fill="#d74514" fill-rule="evenodd" d="M3377 293.5c0-24.024 19.48-43.5 43.5-43.5s43.5 19.476 43.5 43.5-19.48 43.5-43.5 43.5-43.5-19.476-43.5-43.5"/><text fill="#d74514" font-family="Microsoft YaHei,Microsoft YaHei_MSFontService,sans-serif" font-size="73" font-weight="700" transform="translate(3347.07 207)">011</text><path fill="#d74514" fill-rule="evenodd" d="M3683 986.5c0-24.025 19.48-43.5 43.5-43.5s43.5 19.475 43.5 43.5c0 24.02-19.48 43.5-43.5 43.5s-43.5-19.48-43.5-43.5"/><text fill="#d74514" font-family="Microsoft YaHei,Microsoft YaHei_MSFontService,sans-serif" font-size="73" font-weight="700" transform="translate(3653.3 900)">101</text><path fill="#d74514" fill-rule="evenodd" d="M3377 986.5c0-24.025 19.48-43.5 43.5-43.5s43.5 19.475 43.5 43.5c0 24.02-19.48 43.5-43.5 43.5s-43.5-19.48-43.5-43.5"/><text fill="#d74514" font-family="Microsoft YaHei,Microsoft YaHei_MSFontService,sans-serif" font-size="73" font-weight="700" transform="translate(3347.07 900)">111</text><path fill="none" stroke="#000" stroke-dasharray="27.5 9.16667" stroke-miterlimit="8" stroke-width="9.167" d="m3133.5 241.5 846.34 826.46m-803.34-55.55 820.382-767.905"/></g></svg>

<svg width="1195" height="1129" xmlns="http://www.w3.org/2000/svg" xmlns:xlink="http://www.w3.org/1999/xlink" overflow="hidden"><defs><clipPath id="clip0"><rect x="3007" y="77" width="1195" height="1129"/></clipPath></defs><g clip-path="url(#clip0)" transform="translate(-3007 -77)"><path d="M3007.5 656.5 4196.88 656.5" stroke="#000000" stroke-width="9.16667" stroke-miterlimit="8" fill="none" fill-rule="evenodd"/><path d="M0 0 0.000360892 1103.44" stroke="#000000" stroke-width="9.16667" stroke-miterlimit="8" fill="none" fill-rule="evenodd" transform="matrix(1 0 0 -1 3566.5 1205.94)"/><path d="M3892 522C3892 497.7 3911.48 478 3935.5 478 3959.52 478 3979 497.7 3979 522 3979 546.301 3959.52 566 3935.5 566 3911.48 566 3892 546.301 3892 522Z" fill="#D74514" fill-rule="evenodd"/><text fill="#D74514" font-family="Microsoft YaHei,Microsoft YaHei_MSFontService,sans-serif" font-weight="700" font-size="73" transform="matrix(1 0 0 1 3862.3 435)">000</text><path d="M4144.05 714.715 4158.31 714.715 4157.91 716.461C4157.01 716.652 4156.36 716.865 4155.97 717.103 4155.58 717.341 4155.23 717.697 4154.92 718.172 4154.61 718.648 4154.29 719.39 4153.96 720.4 4153.62 721.41 4153.21 723.056 4152.71 725.337L4146.61 752.997C4146.31 754.399 4146.1 755.51 4146.01 756.33 4145.91 757.15 4145.87 757.892 4145.87 758.558 4145.87 759.627 4146.13 760.381 4146.67 760.821 4147.2 761.261 4148.1 761.528 4149.36 761.623L4148.97 763.37 4134.71 763.37 4135.1 761.623C4136 761.48 4136.68 761.249 4137.13 760.928 4137.58 760.607 4137.96 760.162 4138.27 759.591 4138.58 759.021 4138.87 758.326 4139.13 757.506 4139.39 756.686 4139.78 755.1 4140.31 752.748L4146.37 725.301C4146.89 722.925 4147.15 721.012 4147.15 719.562 4147.15 718.446 4146.87 717.667 4146.31 717.228 4145.75 716.788 4144.87 716.533 4143.66 716.461Z" fill-rule="evenodd"/><text fill="#000000" fill-opacity="0" font-family="Arial,Arial_MSFontService,sans-serif" font-size="48.6548" x="4134.71" y="757.288">𝐼</text><path d="M3639.32 119.552C3636.75 119.552 3634.36 120.467 3632.14 122.297 3629.92 124.127 3627.97 126.741 3626.29 130.139 3624.62 133.537 3623.32 137.268 3622.39 141.331 3621.46 145.394 3621 148.983 3621 152.096 3621 159.438 3623.67 163.11 3629.02 163.11 3632.32 163.11 3635.35 161.571 3638.11 158.494 3640.86 155.417 3643.09 151.157 3644.77 145.715 3646.46 140.274 3647.3 135.188 3647.3 130.459 3647.3 126.919 3646.65 124.216 3645.34 122.35 3644.04 120.485 3642.03 119.552 3639.32 119.552ZM3639.71 116.415C3644.3 116.415 3647.83 117.746 3650.32 120.408 3652.8 123.069 3654.04 126.919 3654.04 131.956 3654.04 135.283 3653.52 139.002 3652.47 143.113 3651.43 147.224 3649.99 150.854 3648.16 154.003 3646.33 157.151 3644.21 159.688 3641.8 161.613 3639.39 163.538 3636.77 164.868 3633.94 165.605 3634.48 167.34 3635 168.771 3635.47 169.9 3635.95 171.029 3636.4 171.944 3636.84 172.645 3637.28 173.346 3637.72 173.869 3638.14 174.213 3638.57 174.558 3639 174.789 3639.43 174.908 3639.85 175.027 3640.35 175.086 3640.92 175.086 3641.83 175.086 3642.74 174.825 3643.67 174.302 3644.6 173.779 3645.63 172.876 3646.77 171.593L3648.62 173.589C3646.72 175.657 3644.95 177.118 3643.31 177.974 3641.67 178.829 3639.99 179.257 3638.25 179.257 3636.28 179.257 3634.67 178.817 3633.42 177.938 3632.17 177.059 3631.09 175.657 3630.18 173.732 3629.26 171.807 3628.38 169.288 3627.52 166.175 3623.22 165.938 3619.94 164.512 3617.68 161.898 3615.43 159.284 3614.3 155.601 3614.3 150.848 3614.3 147.284 3614.9 143.256 3616.1 138.765 3617.3 134.273 3619.03 130.311 3621.3 126.877 3623.57 123.443 3626.28 120.841 3629.43 119.071 3632.58 117.301 3636.01 116.415 3639.71 116.415Z" fill-rule="evenodd"/><text fill="#000000" fill-opacity="0" font-family="Arial,Arial_MSFontService,sans-serif" font-size="62.8413" x="3614.3" y="171.402">𝑄</text><path d="M3201 522C3201 497.7 3220.48 478 3244.5 478 3268.52 478 3288 497.7 3288 522 3288 546.301 3268.52 566 3244.5 566 3220.48 566 3201 546.301 3201 522Z" fill="#D74514" fill-rule="evenodd"/><text fill="#D74514" font-family="Microsoft YaHei,Microsoft YaHei_MSFontService,sans-serif" font-weight="700" font-size="73" transform="matrix(1 0 0 1 3171.07 435)">010</text><path d="M3892 818.5C3892 794.476 3911.48 775 3935.5 775 3959.52 775 3979 794.476 3979 818.5 3979 842.525 3959.52 862 3935.5 862 3911.48 862 3892 842.525 3892 818.5Z" fill="#D74514" fill-rule="evenodd"/><text fill="#D74514" font-family="Microsoft YaHei,Microsoft YaHei_MSFontService,sans-serif" font-weight="700" font-size="73" transform="matrix(1 0 0 1 3862.3 732)">100</text><path d="M3201 818.5C3201 794.476 3220.48 775 3244.5 775 3268.52 775 3288 794.476 3288 818.5 3288 842.525 3268.52 862 3244.5 862 3220.48 862 3201 842.525 3201 818.5Z" fill="#D74514" fill-rule="evenodd"/><text fill="#D74514" font-family="Microsoft YaHei,Microsoft YaHei_MSFontService,sans-serif" font-weight="700" font-size="73" transform="matrix(1 0 0 1 3171.07 732)">110</text><path d="M3683 293.5C3683 269.476 3702.48 250 3726.5 250 3750.52 250 3770 269.476 3770 293.5 3770 317.524 3750.52 337 3726.5 337 3702.48 337 3683 317.524 3683 293.5Z" fill="#D74514" fill-rule="evenodd"/><text fill="#D74514" font-family="Microsoft YaHei,Microsoft YaHei_MSFontService,sans-serif" font-weight="700" font-size="73" transform="matrix(1 0 0 1 3653.3 207)">001</text><path d="M3377 293.5C3377 269.476 3396.48 250 3420.5 250 3444.52 250 3464 269.476 3464 293.5 3464 317.524 3444.52 337 3420.5 337 3396.48 337 3377 317.524 3377 293.5Z" fill="#D74514" fill-rule="evenodd"/><text fill="#D74514" font-family="Microsoft YaHei,Microsoft YaHei_MSFontService,sans-serif" font-weight="700" font-size="73" transform="matrix(1 0 0 1 3347.07 207)">011</text><path d="M3683 986.5C3683 962.475 3702.48 943 3726.5 943 3750.52 943 3770 962.475 3770 986.5 3770 1010.52 3750.52 1030 3726.5 1030 3702.48 1030 3683 1010.52 3683 986.5Z" fill="#D74514" fill-rule="evenodd"/><text fill="#D74514" font-family="Microsoft YaHei,Microsoft YaHei_MSFontService,sans-serif" font-weight="700" font-size="73" transform="matrix(1 0 0 1 3653.3 900)">101</text><path d="M3377 986.5C3377 962.475 3396.48 943 3420.5 943 3444.52 943 3464 962.475 3464 986.5 3464 1010.52 3444.52 1030 3420.5 1030 3396.48 1030 3377 1010.52 3377 986.5Z" fill="#D74514" fill-rule="evenodd"/><text fill="#D74514" font-family="Microsoft YaHei,Microsoft YaHei_MSFontService,sans-serif" font-weight="700" font-size="73" transform="matrix(1 0 0 1 3347.07 900)">111</text><path d="M3133.5 241.5 3979.84 1067.96" stroke="#000000" stroke-width="9.16667" stroke-miterlimit="8" stroke-dasharray="27.5 9.16667" fill="none" fill-rule="evenodd"/><path d="M0 0 820.382 767.905" stroke="#000000" stroke-width="9.16667" stroke-miterlimit="8" stroke-dasharray="27.5 9.16667" fill="none" fill-rule="evenodd" transform="matrix(1 0 0 -1 3176.5 1012.41)"/></g></svg>
